(Exported by greeschenko/gcodegenerator)
(Post Processor: grbl_post)
(Begin preamble)
G17 G90
G21
(Path: G54)
G0 Z5.000000
(Compensated Tool Path. Diameter: 3.170000)
G0 X-3.170000 Y-1.585000
G1 X-3.170000 Y-1.585000 Z0.000000 F60.000000
G1 X13.170000 Y-1.585000 Z0.000000 F500.000000
G1 Z0.060000 F60.000000
G1 X-3.170000 F500.000000
G1 X-3.170000 Y-1.585000 Z-0.060000 F60.000000
G1 X13.170000 Y-1.585000 Z-0.060000 F500.000000
G1 Z0.000000 F60.000000
G1 X-3.170000 F500.000000
G1 X-3.170000 Y-1.585000 Z-0.120000 F60.000000
G1 X13.170000 Y-1.585000 Z-0.120000 F500.000000
G1 Z-0.060000 F60.000000
G1 X-3.170000 F500.000000
G1 X-3.170000 Y-1.585000 Z-0.180000 F60.000000
G1 X13.170000 Y-1.585000 Z-0.180000 F500.000000
G1 Z-0.120000 F60.000000
G1 X-3.170000 F500.000000
G1 X-3.170000 Y-1.585000 Z-0.240000 F60.000000
G1 X13.170000 Y-1.585000 Z-0.240000 F500.000000
G1 Z-0.180000 F60.000000
G1 X-3.170000 F500.000000
G1 X-3.170000 Y-1.585000 Z-0.300000 F60.000000
G1 X13.170000 Y-1.585000 Z-0.300000 F500.000000
G1 Z-0.240000 F60.000000
G1 X-3.170000 F500.000000
G1 X-3.170000 Y-1.585000 Z-0.360000 F60.000000
G1 X13.170000 Y-1.585000 Z-0.360000 F500.000000
G1 Z-0.300000 F60.000000
G1 X-3.170000 F500.000000
G1 X-3.170000 Y-1.585000 Z-0.420000 F60.000000
G1 X13.170000 Y-1.585000 Z-0.420000 F500.000000
G1 Z-0.360000 F60.000000
G1 X-3.170000 F500.000000
G1 X-3.170000 Y-1.585000 Z-0.480000 F60.000000
G1 X13.170000 Y-1.585000 Z-0.480000 F500.000000
G1 Z-0.420000 F60.000000
G1 X-3.170000 F500.000000
G1 X-3.170000 Y-1.585000 Z-0.540000 F60.000000
G1 X13.170000 Y-1.585000 Z-0.540000 F500.000000
G1 Z-0.480000 F60.000000
G1 X-3.170000 F500.000000
G1 X-3.170000 Y-1.585000 Z-0.600000 F60.000000
G1 X13.170000 Y-1.585000 Z-0.600000 F500.000000
G1 Z-0.540000 F60.000000
G1 X-3.170000 F500.000000
G1 X-3.170000 Y-1.585000 Z-0.660000 F60.000000
G1 X13.170000 Y-1.585000 Z-0.660000 F500.000000
G1 Z-0.600000 F60.000000
G1 X-3.170000 F500.000000
G1 X-3.170000 Y-1.585000 Z-0.720000 F60.000000
G1 X13.170000 Y-1.585000 Z-0.720000 F500.000000
G1 Z-0.660000 F60.000000
G1 X-3.170000 F500.000000
G1 X-3.170000 Y-1.585000 Z-0.780000 F60.000000
G1 X13.170000 Y-1.585000 Z-0.780000 F500.000000
G1 Z-0.720000 F60.000000
G1 X-3.170000 F500.000000
G1 X-3.170000 Y-1.585000 Z-0.840000 F60.000000
G1 X13.170000 Y-1.585000 Z-0.840000 F500.000000
G1 Z-0.780000 F60.000000
G1 X-3.170000 F500.000000
G1 X-3.170000 Y-1.585000 Z-0.900000 F60.000000
G1 X13.170000 Y-1.585000 Z-0.900000 F500.000000
G1 Z-0.840000 F60.000000
G1 X-3.170000 F500.000000
G1 X-3.170000 Y-1.585000 Z-0.960000 F60.000000
G1 X13.170000 Y-1.585000 Z-0.960000 F500.000000
G1 Z-0.900000 F60.000000
G1 X-3.170000 F500.000000
G1 X-3.170000 Y-1.585000 Z-1.020000 F60.000000
G1 X13.170000 Y-1.585000 Z-1.020000 F500.000000
G1 Z-0.960000 F60.000000
G1 X-3.170000 F500.000000
G1 X-3.170000 Y-1.585000 Z-1.080000 F60.000000
G1 X13.170000 Y-1.585000 Z-1.080000 F500.000000
G1 Z-1.020000 F60.000000
G1 X-3.170000 F500.000000
G1 X-3.170000 Y-1.585000 Z-1.140000 F60.000000
G1 X13.170000 Y-1.585000 Z-1.140000 F500.000000
G1 Z-1.080000 F60.000000
G1 X-3.170000 F500.000000
G1 X-3.170000 Y-1.585000 Z-1.200000 F60.000000
G1 X13.170000 Y-1.585000 Z-1.200000 F500.000000
G1 Z-1.140000 F60.000000
G1 X-3.170000 F500.000000
G1 X-3.170000 Y-1.585000 Z-1.260000 F60.000000
G1 X13.170000 Y-1.585000 Z-1.260000 F500.000000
G1 Z-1.200000 F60.000000
G1 X-3.170000 F500.000000
G1 X-3.170000 Y-1.585000 Z-1.320000 F60.000000
G1 X13.170000 Y-1.585000 Z-1.320000 F500.000000
G1 Z-1.260000 F60.000000
G1 X-3.170000 F500.000000
G1 X-3.170000 Y-1.585000 Z-1.380000 F60.000000
G1 X13.170000 Y-1.585000 Z-1.380000 F500.000000
G1 Z-1.320000 F60.000000
G1 X-3.170000 F500.000000
G1 X-3.170000 Y-1.585000 Z-1.440000 F60.000000
G1 X13.170000 Y-1.585000 Z-1.440000 F500.000000
G1 Z-1.380000 F60.000000
G1 X-3.170000 F500.000000
G1 X-3.170000 Y-1.585000 Z-1.500000 F60.000000
G1 X13.170000 Y-1.585000 Z-1.500000 F500.000000
G1 Z-1.440000 F60.000000
G1 X-3.170000 F500.000000
G1 X-3.170000 Y-1.585000 Z-1.560000 F60.000000
G1 X13.170000 Y-1.585000 Z-1.560000 F500.000000
G1 Z-1.500000 F60.000000
G1 X-3.170000 F500.000000
G1 X-3.170000 Y-1.585000 Z-1.620000 F60.000000
G1 X13.170000 Y-1.585000 Z-1.620000 F500.000000
G1 Z-1.560000 F60.000000
G1 X-3.170000 F500.000000
G1 X-3.170000 Y-1.585000 Z-1.680000 F60.000000
G1 X13.170000 Y-1.585000 Z-1.680000 F500.000000
G1 Z-1.620000 F60.000000
G1 X-3.170000 F500.000000
G1 X-3.170000 Y-1.585000 Z-1.740000 F60.000000
G1 X13.170000 Y-1.585000 Z-1.740000 F500.000000
G1 Z-1.680000 F60.000000
G1 X-3.170000 F500.000000
G1 X-3.170000 Y-1.585000 Z-1.800000 F60.000000
G1 X13.170000 Y-1.585000 Z-1.800000 F500.000000
G1 Z-1.740000 F60.000000
G1 X-3.170000 F500.000000
G1 X-3.170000 Y-1.585000 Z-1.860000 F60.000000
G1 X13.170000 Y-1.585000 Z-1.860000 F500.000000
G1 Z-1.800000 F60.000000
G1 X-3.170000 F500.000000
G1 X-3.170000 Y-1.585000 Z-1.920000 F60.000000
G1 X13.170000 Y-1.585000 Z-1.920000 F500.000000
G1 Z-1.860000 F60.000000
G1 X-3.170000 F500.000000
G1 X-3.170000 Y-1.585000 Z-1.980000 F60.000000
G1 X13.170000 Y-1.585000 Z-1.980000 F500.000000
G1 Z-1.920000 F60.000000
G1 X-3.170000 F500.000000
G1 X-3.170000 Y-1.585000 Z-2.040000 F60.000000
G1 X13.170000 Y-1.585000 Z-2.040000 F500.000000
G1 Z-1.980000 F60.000000
G1 X-3.170000 F500.000000
G1 X-3.170000 Y-1.585000 Z-2.100000 F60.000000
G1 X13.170000 Y-1.585000 Z-2.100000 F500.000000
G1 Z-2.040000 F60.000000
G1 X-3.170000 F500.000000
G1 X-3.170000 Y-1.585000 Z-2.160000 F60.000000
G1 X13.170000 Y-1.585000 Z-2.160000 F500.000000
G1 Z-2.100000 F60.000000
G1 X-3.170000 F500.000000
G1 X-3.170000 Y-1.585000 Z-2.220000 F60.000000
G1 X13.170000 Y-1.585000 Z-2.220000 F500.000000
G1 Z-2.160000 F60.000000
G1 X-3.170000 F500.000000
G1 X-3.170000 Y-1.585000 Z-2.280000 F60.000000
G1 X13.170000 Y-1.585000 Z-2.280000 F500.000000
G1 Z-2.220000 F60.000000
G1 X-3.170000 F500.000000
G1 X-3.170000 Y-1.585000 Z-2.340000 F60.000000
G1 X13.170000 Y-1.585000 Z-2.340000 F500.000000
G1 Z-2.280000 F60.000000
G1 X-3.170000 F500.000000
G1 X-3.170000 Y-1.585000 Z-2.400000 F60.000000
G1 X13.170000 Y-1.585000 Z-2.400000 F500.000000
G1 Z-2.340000 F60.000000
G1 X-3.170000 F500.000000
G1 X-3.170000 Y-1.585000 Z-2.460000 F60.000000
G1 X13.170000 Y-1.585000 Z-2.460000 F500.000000
G1 Z-2.400000 F60.000000
G1 X-3.170000 F500.000000
G1 X-3.170000 Y-1.585000 Z-2.520000 F60.000000
G1 X13.170000 Y-1.585000 Z-2.520000 F500.000000
G1 Z-2.460000 F60.000000
G1 X-3.170000 F500.000000
G1 X-3.170000 Y-1.585000 Z-2.580000 F60.000000
G1 X13.170000 Y-1.585000 Z-2.580000 F500.000000
G1 Z-2.520000 F60.000000
G1 X-3.170000 F500.000000
G1 X-3.170000 Y-1.585000 Z-2.640000 F60.000000
G1 X13.170000 Y-1.585000 Z-2.640000 F500.000000
G1 Z-2.580000 F60.000000
G1 X-3.170000 F500.000000
G1 X-3.170000 Y-1.585000 Z-2.700000 F60.000000
G1 X13.170000 Y-1.585000 Z-2.700000 F500.000000
G1 Z-2.640000 F60.000000
G1 X-3.170000 F500.000000
G1 X-3.170000 Y-1.585000 Z-2.760000 F60.000000
G1 X13.170000 Y-1.585000 Z-2.760000 F500.000000
G1 Z-2.700000 F60.000000
G1 X-3.170000 F500.000000
G1 X-3.170000 Y-1.585000 Z-2.820000 F60.000000
G1 X13.170000 Y-1.585000 Z-2.820000 F500.000000
G1 Z-2.760000 F60.000000
G1 X-3.170000 F500.000000
G1 X-3.170000 Y-1.585000 Z-2.880000 F60.000000
G1 X13.170000 Y-1.585000 Z-2.880000 F500.000000
G1 Z-2.820000 F60.000000
G1 X-3.170000 F500.000000
G1 X-3.170000 Y-1.585000 Z-2.940000 F60.000000
G1 X13.170000 Y-1.585000 Z-2.940000 F500.000000
G1 Z-2.880000 F60.000000
G1 X-3.170000 F500.000000
G1 X-3.170000 Y-1.585000 Z-3.000000 F60.000000
G1 X13.170000 Y-1.585000 Z-3.000000 F500.000000
G1 Z-2.940000 F60.000000
G1 X-3.170000 F500.000000
G1 X-3.170000 Y-1.585000 Z-3.060000 F60.000000
G1 X13.170000 Y-1.585000 Z-3.060000 F500.000000
G1 Z-3.000000 F60.000000
G1 X-3.170000 F500.000000
G1 X-3.170000 Y-1.585000 Z-3.120000 F60.000000
G1 X13.170000 Y-1.585000 Z-3.120000 F500.000000
G1 Z-3.060000 F60.000000
G1 X-3.170000 F500.000000
G1 X-3.170000 Y-1.585000 Z-3.180000 F60.000000
G1 X13.170000 Y-1.585000 Z-3.180000 F500.000000
G1 Z-3.120000 F60.000000
G1 X-3.170000 F500.000000
G1 X-3.170000 Y-1.585000 Z-3.240000 F60.000000
G1 X13.170000 Y-1.585000 Z-3.240000 F500.000000
G1 Z-3.180000 F60.000000
G1 X-3.170000 F500.000000
G1 X-3.170000 Y-1.585000 Z-3.300000 F60.000000
G1 X13.170000 Y-1.585000 Z-3.300000 F500.000000
G1 Z-3.240000 F60.000000
G1 X-3.170000 F500.000000
G1 X-3.170000 Y-1.585000 Z-3.360000 F60.000000
G1 X13.170000 Y-1.585000 Z-3.360000 F500.000000
G1 Z-3.300000 F60.000000
G1 X-3.170000 F500.000000
G1 X-3.170000 Y-1.585000 Z-3.420000 F60.000000
G1 X13.170000 Y-1.585000 Z-3.420000 F500.000000
G1 Z-3.360000 F60.000000
G1 X-3.170000 F500.000000
G1 X-3.170000 Y-1.585000 Z-3.480000 F60.000000
G1 X13.170000 Y-1.585000 Z-3.480000 F500.000000
G1 Z-3.420000 F60.000000
G1 X-3.170000 F500.000000
G1 X-3.170000 Y-1.585000 Z-3.540000 F60.000000
G1 X13.170000 Y-1.585000 Z-3.540000 F500.000000
G1 Z-3.480000 F60.000000
G1 X-3.170000 F500.000000
G1 X-3.170000 Y-1.585000 Z-3.600000 F60.000000
G1 X13.170000 Y-1.585000 Z-3.600000 F500.000000
G1 Z-3.540000 F60.000000
G1 X-3.170000 F500.000000
G1 X-3.170000 Y-1.585000 Z-3.660000 F60.000000
G1 X13.170000 Y-1.585000 Z-3.660000 F500.000000
G1 Z-3.600000 F60.000000
G1 X-3.170000 F500.000000
G1 X-3.170000 Y-1.585000 Z-3.720000 F60.000000
G1 X13.170000 Y-1.585000 Z-3.720000 F500.000000
G1 Z-3.660000 F60.000000
G1 X-3.170000 F500.000000
G1 X-3.170000 Y-1.585000 Z-3.780000 F60.000000
G1 X13.170000 Y-1.585000 Z-3.780000 F500.000000
G1 Z-3.720000 F60.000000
G1 X-3.170000 F500.000000
G1 X-3.170000 Y-1.585000 Z-3.840000 F60.000000
G1 X13.170000 Y-1.585000 Z-3.840000 F500.000000
G1 Z-3.780000 F60.000000
G1 X-3.170000 F500.000000
G1 X-3.170000 Y-1.585000 Z-3.900000 F60.000000
G1 X13.170000 Y-1.585000 Z-3.900000 F500.000000
G1 Z-3.840000 F60.000000
G1 X-3.170000 F500.000000
G1 X-3.170000 Y-1.585000 Z-3.960000 F60.000000
G1 X13.170000 Y-1.585000 Z-3.960000 F500.000000
G1 Z-3.900000 F60.000000
G1 X-3.170000 F500.000000
G1 X-3.170000 Y-1.585000 Z-4.020000 F60.000000
G1 X13.170000 Y-1.585000 Z-4.020000 F500.000000
G1 Z-3.960000 F60.000000
G1 X-3.170000 F500.000000
G1 X-3.170000 Y-1.585000 Z-4.080000 F60.000000
G1 X13.170000 Y-1.585000 Z-4.080000 F500.000000
G1 Z-4.020000 F60.000000
G1 X-3.170000 F500.000000
G1 X-3.170000 Y-1.585000 Z-4.140000 F60.000000
G1 X13.170000 Y-1.585000 Z-4.140000 F500.000000
G1 Z-4.080000 F60.000000
G1 X-3.170000 F500.000000
G1 X-3.170000 Y-1.585000 Z-4.200000 F60.000000
G1 X13.170000 Y-1.585000 Z-4.200000 F500.000000
G1 Z-4.140000 F60.000000
G1 X-3.170000 F500.000000
G1 X-3.170000 Y-1.585000 Z-4.260000 F60.000000
G1 X13.170000 Y-1.585000 Z-4.260000 F500.000000
G1 Z-4.200000 F60.000000
G1 X-3.170000 F500.000000
G1 X-3.170000 Y-1.585000 Z-4.320000 F60.000000
G1 X13.170000 Y-1.585000 Z-4.320000 F500.000000
G1 Z-4.260000 F60.000000
G1 X-3.170000 F500.000000
G1 X-3.170000 Y-1.585000 Z-4.380000 F60.000000
G1 X13.170000 Y-1.585000 Z-4.380000 F500.000000
G1 Z-4.320000 F60.000000
G1 X-3.170000 F500.000000
G1 X-3.170000 Y-1.585000 Z-4.440000 F60.000000
G1 X13.170000 Y-1.585000 Z-4.440000 F500.000000
G1 Z-4.380000 F60.000000
G1 X-3.170000 F500.000000
G1 X-3.170000 Y-1.585000 Z-4.500000 F60.000000
G1 X13.170000 Y-1.585000 Z-4.500000 F500.000000
G1 Z-4.440000 F60.000000
G1 X-3.170000 F500.000000
G1 X-3.170000 Y-1.585000 Z-4.560000 F60.000000
G1 X13.170000 Y-1.585000 Z-4.560000 F500.000000
G1 Z-4.500000 F60.000000
G1 X-3.170000 F500.000000
G1 X-3.170000 Y-1.585000 Z-4.620000 F60.000000
G1 X13.170000 Y-1.585000 Z-4.620000 F500.000000
G1 Z-4.560000 F60.000000
G1 X-3.170000 F500.000000
G1 X-3.170000 Y-1.585000 Z-4.680000 F60.000000
G1 X13.170000 Y-1.585000 Z-4.680000 F500.000000
G1 Z-4.620000 F60.000000
G1 X-3.170000 F500.000000
G1 X-3.170000 Y-1.585000 Z-4.740000 F60.000000
G1 X13.170000 Y-1.585000 Z-4.740000 F500.000000
G1 Z-4.680000 F60.000000
G1 X-3.170000 F500.000000
G1 X-3.170000 Y-1.585000 Z-4.800000 F60.000000
G1 X13.170000 Y-1.585000 Z-4.800000 F500.000000
G1 Z-4.740000 F60.000000
G1 X-3.170000 F500.000000
G1 X-3.170000 Y-1.585000 Z-4.860000 F60.000000
G1 X13.170000 Y-1.585000 Z-4.860000 F500.000000
G1 Z-4.800000 F60.000000
G1 X-3.170000 F500.000000
G1 X-3.170000 Y-1.585000 Z-4.920000 F60.000000
G1 X13.170000 Y-1.585000 Z-4.920000 F500.000000
G1 Z-4.860000 F60.000000
G1 X-3.170000 F500.000000
G1 X-3.170000 Y-1.585000 Z-4.980000 F60.000000
G1 X13.170000 Y-1.585000 Z-4.980000 F500.000000
G1 Z-4.920000 F60.000000
G1 X-3.170000 F500.000000
G1 X-3.170000 Y-1.585000 Z-5.040000 F60.000000
G1 X13.170000 Y-1.585000 Z-5.040000 F500.000000
G1 Z-4.980000 F60.000000
G1 X-3.170000 F500.000000
G1 X-3.170000 Y-1.585000 Z-5.100000 F60.000000
G1 X13.170000 Y-1.585000 Z-5.100000 F500.000000
G1 Z-5.040000 F60.000000
G1 X-3.170000 F500.000000
G1 X-3.170000 Y-1.585000 Z-5.160000 F60.000000
G1 X13.170000 Y-1.585000 Z-5.160000 F500.000000
G1 Z-5.100000 F60.000000
G1 X-3.170000 F500.000000
G1 X-3.170000 Y-1.585000 Z-5.220000 F60.000000
G1 X13.170000 Y-1.585000 Z-5.220000 F500.000000
G1 Z-5.160000 F60.000000
G1 X-3.170000 F500.000000
G1 X-3.170000 Y-1.585000 Z-5.280000 F60.000000
G1 X13.170000 Y-1.585000 Z-5.280000 F500.000000
G1 Z-5.220000 F60.000000
G1 X-3.170000 F500.000000
G1 X-3.170000 Y-1.585000 Z-5.340000 F60.000000
G1 X13.170000 Y-1.585000 Z-5.340000 F500.000000
G1 Z-5.280000 F60.000000
G1 X-3.170000 F500.000000
G1 X-3.170000 Y-1.585000 Z-5.400000 F60.000000
G1 X13.170000 Y-1.585000 Z-5.400000 F500.000000
G1 Z-5.340000 F60.000000
G1 X-3.170000 F500.000000
G1 X-3.170000 Y-1.585000 Z-5.460000 F60.000000
G1 X13.170000 Y-1.585000 Z-5.460000 F500.000000
G1 Z-5.400000 F60.000000
G1 X-3.170000 F500.000000
G1 X-3.170000 Y-1.585000 Z-5.520000 F60.000000
G1 X13.170000 Y-1.585000 Z-5.520000 F500.000000
G1 Z-5.460000 F60.000000
G1 X-3.170000 F500.000000
G1 X-3.170000 Y-1.585000 Z-5.580000 F60.000000
G1 X13.170000 Y-1.585000 Z-5.580000 F500.000000
G1 Z-5.520000 F60.000000
G1 X-3.170000 F500.000000
G1 X-3.170000 Y-1.585000 Z-5.640000 F60.000000
G1 X13.170000 Y-1.585000 Z-5.640000 F500.000000
G1 Z-5.580000 F60.000000
G1 X-3.170000 F500.000000
G1 X-3.170000 Y-1.585000 Z-5.700000 F60.000000
G1 X13.170000 Y-1.585000 Z-5.700000 F500.000000
G1 Z-5.640000 F60.000000
G1 X-3.170000 F500.000000
G1 X-3.170000 Y-1.585000 Z-5.760000 F60.000000
G1 X13.170000 Y-1.585000 Z-5.760000 F500.000000
G1 Z-5.700000 F60.000000
G1 X-3.170000 F500.000000
G1 X-3.170000 Y-1.585000 Z-5.820000 F60.000000
G1 X13.170000 Y-1.585000 Z-5.820000 F500.000000
G1 Z-5.760000 F60.000000
G1 X-3.170000 F500.000000
G1 X-3.170000 Y-1.585000 Z-5.880000 F60.000000
G1 X13.170000 Y-1.585000 Z-5.880000 F500.000000
G1 Z-5.820000 F60.000000
G1 X-3.170000 F500.000000
G1 X-3.170000 Y-1.585000 Z-5.940000 F60.000000
G1 X13.170000 Y-1.585000 Z-5.940000 F500.000000
G1 Z-5.880000 F60.000000
G1 X-3.170000 F500.000000
G1 X-3.170000 Y-1.585000 Z-6.000000 F60.000000
G1 X13.170000 Y-1.585000 Z-6.000000 F500.000000
G1 Z-5.940000 F60.000000
G1 X-3.170000 F500.000000
G1 X-3.170000 Y-1.585000 Z-6.060000 F60.000000
G1 X13.170000 Y-1.585000 Z-6.060000 F500.000000
G1 Z-6.000000 F60.000000
G1 X-3.170000 F500.000000
G1 X-3.170000 Y-1.585000 Z-6.120000 F60.000000
G1 X13.170000 Y-1.585000 Z-6.120000 F500.000000
G1 Z-6.060000 F60.000000
G1 X-3.170000 F500.000000
G1 X-3.170000 Y-1.585000 Z-6.180000 F60.000000
G1 X13.170000 Y-1.585000 Z-6.180000 F500.000000
G1 Z-6.120000 F60.000000
G1 X-3.170000 F500.000000
G1 X-3.170000 Y-1.585000 Z-6.240000 F60.000000
G1 X13.170000 Y-1.585000 Z-6.240000 F500.000000
G1 Z-6.180000 F60.000000
G1 X-3.170000 F500.000000
G1 X-3.170000 Y-1.585000 Z-6.300000 F60.000000
G1 X13.170000 Y-1.585000 Z-6.300000 F500.000000
G1 Z-6.240000 F60.000000
G1 X-3.170000 F500.000000
G1 X-3.170000 Y-1.585000 Z-6.360000 F60.000000
G1 X13.170000 Y-1.585000 Z-6.360000 F500.000000
G1 Z-6.300000 F60.000000
G1 X-3.170000 F500.000000
G1 X-3.170000 Y-1.585000 Z-6.420000 F60.000000
G1 X13.170000 Y-1.585000 Z-6.420000 F500.000000
G1 Z-6.360000 F60.000000
G1 X-3.170000 F500.000000
G1 X-3.170000 Y-1.585000 Z-6.480000 F60.000000
G1 X13.170000 Y-1.585000 Z-6.480000 F500.000000
G1 Z-6.420000 F60.000000
G1 X-3.170000 F500.000000
G1 X-3.170000 Y-1.585000 Z-6.540000 F60.000000
G1 X13.170000 Y-1.585000 Z-6.540000 F500.000000
G1 Z-6.480000 F60.000000
G1 X-3.170000 F500.000000
G1 X-3.170000 Y-1.585000 Z-6.600000 F60.000000
G1 X13.170000 Y-1.585000 Z-6.600000 F500.000000
G1 Z-6.540000 F60.000000
G1 X-3.170000 F500.000000
G1 X-3.170000 Y-1.585000 Z-6.660000 F60.000000
G1 X13.170000 Y-1.585000 Z-6.660000 F500.000000
G1 Z-6.600000 F60.000000
G1 X-3.170000 F500.000000
G1 X-3.170000 Y-1.585000 Z-6.720000 F60.000000
G1 X13.170000 Y-1.585000 Z-6.720000 F500.000000
G1 Z-6.660000 F60.000000
G1 X-3.170000 F500.000000
G1 X-3.170000 Y-1.585000 Z-6.780000 F60.000000
G1 X13.170000 Y-1.585000 Z-6.780000 F500.000000
G1 Z-6.720000 F60.000000
G1 X-3.170000 F500.000000
G1 X-3.170000 Y-1.585000 Z-6.840000 F60.000000
G1 X13.170000 Y-1.585000 Z-6.840000 F500.000000
G1 Z-6.780000 F60.000000
G1 X-3.170000 F500.000000
G1 X-3.170000 Y-1.585000 Z-6.900000 F60.000000
G1 X13.170000 Y-1.585000 Z-6.900000 F500.000000
G1 Z-6.840000 F60.000000
G1 X-3.170000 F500.000000
G1 X-3.170000 Y-1.585000 Z-6.960000 F60.000000
G1 X13.170000 Y-1.585000 Z-6.960000 F500.000000
G1 Z-6.900000 F60.000000
G1 X-3.170000 F500.000000
G1 X-3.170000 Y-1.585000 Z-7.020000 F60.000000
G1 X13.170000 Y-1.585000 Z-7.020000 F500.000000
G1 Z-6.960000 F60.000000
G1 X-3.170000 F500.000000
G1 X-3.170000 Y-1.585000 Z-7.080000 F60.000000
G1 X13.170000 Y-1.585000 Z-7.080000 F500.000000
G1 Z-7.020000 F60.000000
G1 X-3.170000 F500.000000
G1 X-3.170000 Y-1.585000 Z-7.140000 F60.000000
G1 X13.170000 Y-1.585000 Z-7.140000 F500.000000
G1 Z-7.080000 F60.000000
G1 X-3.170000 F500.000000
G1 X-3.170000 Y-1.585000 Z-7.200000 F60.000000
G1 X13.170000 Y-1.585000 Z-7.200000 F500.000000
G1 Z-7.140000 F60.000000
G1 X-3.170000 F500.000000
G1 X-3.170000 Y-1.585000 Z-7.260000 F60.000000
G1 X13.170000 Y-1.585000 Z-7.260000 F500.000000
G1 Z-7.200000 F60.000000
G1 X-3.170000 F500.000000
G1 X-3.170000 Y-1.585000 Z-7.320000 F60.000000
G1 X13.170000 Y-1.585000 Z-7.320000 F500.000000
G1 Z-7.260000 F60.000000
G1 X-3.170000 F500.000000
G1 X-3.170000 Y-1.585000 Z-7.380000 F60.000000
G1 X13.170000 Y-1.585000 Z-7.380000 F500.000000
G1 Z-7.320000 F60.000000
G1 X-3.170000 F500.000000
G1 X-3.170000 Y-1.585000 Z-7.440000 F60.000000
G1 X13.170000 Y-1.585000 Z-7.440000 F500.000000
G1 Z-7.380000 F60.000000
G1 X-3.170000 F500.000000
G1 X-3.170000 Y-1.585000 Z-7.500000 F60.000000
G1 X13.170000 Y-1.585000 Z-7.500000 F500.000000
G1 Z-7.440000 F60.000000
G1 X-3.170000 F500.000000
G1 X-3.170000 Y-1.585000 Z-7.560000 F60.000000
G1 X13.170000 Y-1.585000 Z-7.560000 F500.000000
G1 Z-7.500000 F60.000000
G1 X-3.170000 F500.000000
G1 X-3.170000 Y-1.585000 Z-7.620000 F60.000000
G1 X13.170000 Y-1.585000 Z-7.620000 F500.000000
G1 Z-7.560000 F60.000000
G1 X-3.170000 F500.000000
G1 X-3.170000 Y-1.585000 Z-7.680000 F60.000000
G1 X13.170000 Y-1.585000 Z-7.680000 F500.000000
G1 Z-7.620000 F60.000000
G1 X-3.170000 F500.000000
G1 X-3.170000 Y-1.585000 Z-7.740000 F60.000000
G1 X13.170000 Y-1.585000 Z-7.740000 F500.000000
G1 Z-7.680000 F60.000000
G1 X-3.170000 F500.000000
G1 X-3.170000 Y-1.585000 Z-7.800000 F60.000000
G1 X13.170000 Y-1.585000 Z-7.800000 F500.000000
G1 Z-7.740000 F60.000000
G1 X-3.170000 F500.000000
G1 X-3.170000 Y-1.585000 Z-7.860000 F60.000000
G1 X13.170000 Y-1.585000 Z-7.860000 F500.000000
G1 Z-7.800000 F60.000000
G1 X-3.170000 F500.000000
G1 X-3.170000 Y-1.585000 Z-7.920000 F60.000000
G1 X13.170000 Y-1.585000 Z-7.920000 F500.000000
G1 Z-7.860000 F60.000000
G1 X-3.170000 F500.000000
G1 X-3.170000 Y-1.585000 Z-7.980000 F60.000000
G1 X13.170000 Y-1.585000 Z-7.980000 F500.000000
G1 Z-7.920000 F60.000000
G1 X-3.170000 F500.000000
G1 X-3.170000 Y-1.585000 Z-8.040000 F60.000000
G1 X13.170000 Y-1.585000 Z-8.040000 F500.000000
G1 Z-7.980000 F60.000000
G1 X-3.170000 F500.000000
G1 X-3.170000 Y-1.585000 Z-8.100000 F60.000000
G1 X13.170000 Y-1.585000 Z-8.100000 F500.000000
G1 Z-8.040000 F60.000000
G1 X-3.170000 F500.000000
G1 X-3.170000 Y-1.585000 Z-8.160000 F60.000000
G1 X13.170000 Y-1.585000 Z-8.160000 F500.000000
G1 Z-8.100000 F60.000000
G1 X-3.170000 F500.000000
G1 X-3.170000 Y-1.585000 Z-8.220000 F60.000000
G1 X13.170000 Y-1.585000 Z-8.220000 F500.000000
G1 Z-8.160000 F60.000000
G1 X-3.170000 F500.000000
G1 X-3.170000 Y-1.585000 Z-8.280000 F60.000000
G1 X13.170000 Y-1.585000 Z-8.280000 F500.000000
G1 Z-8.220000 F60.000000
G1 X-3.170000 F500.000000
G1 X-3.170000 Y-1.585000 Z-8.340000 F60.000000
G1 X13.170000 Y-1.585000 Z-8.340000 F500.000000
G1 Z-8.280000 F60.000000
G1 X-3.170000 F500.000000
G1 X-3.170000 Y-1.585000 Z-8.400000 F60.000000
G1 X13.170000 Y-1.585000 Z-8.400000 F500.000000
G1 Z-8.340000 F60.000000
G1 X-3.170000 F500.000000
G1 X-3.170000 Y-1.585000 Z-8.460000 F60.000000
G1 X13.170000 Y-1.585000 Z-8.460000 F500.000000
G1 Z-8.400000 F60.000000
G1 X-3.170000 F500.000000
G1 X-3.170000 Y-1.585000 Z-8.520000 F60.000000
G1 X13.170000 Y-1.585000 Z-8.520000 F500.000000
G1 Z-8.460000 F60.000000
G1 X-3.170000 F500.000000
G1 X-3.170000 Y-1.585000 Z-8.580000 F60.000000
G1 X13.170000 Y-1.585000 Z-8.580000 F500.000000
G1 Z-8.520000 F60.000000
G1 X-3.170000 F500.000000
G1 X-3.170000 Y-1.585000 Z-8.640000 F60.000000
G1 X13.170000 Y-1.585000 Z-8.640000 F500.000000
G1 Z-8.580000 F60.000000
G1 X-3.170000 F500.000000
G1 X-3.170000 Y-1.585000 Z-8.700000 F60.000000
G1 X13.170000 Y-1.585000 Z-8.700000 F500.000000
G1 Z-8.640000 F60.000000
G1 X-3.170000 F500.000000
G1 X-3.170000 Y-1.585000 Z-8.760000 F60.000000
G1 X13.170000 Y-1.585000 Z-8.760000 F500.000000
G1 Z-8.700000 F60.000000
G1 X-3.170000 F500.000000
G1 X-3.170000 Y-1.585000 Z-8.820000 F60.000000
G1 X13.170000 Y-1.585000 Z-8.820000 F500.000000
G1 Z-8.760000 F60.000000
G1 X-3.170000 F500.000000
G1 X-3.170000 Y-1.585000 Z-8.880000 F60.000000
G1 X13.170000 Y-1.585000 Z-8.880000 F500.000000
G1 Z-8.820000 F60.000000
G1 X-3.170000 F500.000000
G1 X-3.170000 Y-1.585000 Z-8.940000 F60.000000
G1 X13.170000 Y-1.585000 Z-8.940000 F500.000000
G1 Z-8.880000 F60.000000
G1 X-3.170000 F500.000000
G1 X-3.170000 Y-1.585000 Z-9.000000 F60.000000
G1 X13.170000 Y-1.585000 Z-9.000000 F500.000000
G1 Z-8.940000 F60.000000
G1 X-3.170000 F500.000000
G1 X-3.170000 Y-1.585000 Z-9.060000 F60.000000
G1 X13.170000 Y-1.585000 Z-9.060000 F500.000000
G1 Z-9.000000 F60.000000
G1 X-3.170000 F500.000000
G1 X-3.170000 Y-1.585000 Z-9.120000 F60.000000
G1 X13.170000 Y-1.585000 Z-9.120000 F500.000000
G1 Z-9.060000 F60.000000
G1 X-3.170000 F500.000000
G1 X-3.170000 Y-1.585000 Z-9.180000 F60.000000
G1 X13.170000 Y-1.585000 Z-9.180000 F500.000000
G1 Z-9.120000 F60.000000
G1 X-3.170000 F500.000000
G1 X-3.170000 Y-1.585000 Z-9.240000 F60.000000
G1 X13.170000 Y-1.585000 Z-9.240000 F500.000000
G1 Z-9.180000 F60.000000
G1 X-3.170000 F500.000000
G1 X-3.170000 Y-1.585000 Z-9.300000 F60.000000
G1 X13.170000 Y-1.585000 Z-9.300000 F500.000000
G1 Z-9.240000 F60.000000
G1 X-3.170000 F500.000000
G1 X-3.170000 Y-1.585000 Z-9.360000 F60.000000
G1 X13.170000 Y-1.585000 Z-9.360000 F500.000000
G1 Z-9.300000 F60.000000
G1 X-3.170000 F500.000000
G1 X-3.170000 Y-1.585000 Z-9.420000 F60.000000
G1 X13.170000 Y-1.585000 Z-9.420000 F500.000000
G1 Z-9.360000 F60.000000
G1 X-3.170000 F500.000000
G1 X-3.170000 Y-1.585000 Z-9.480000 F60.000000
G1 X13.170000 Y-1.585000 Z-9.480000 F500.000000
G1 Z-9.420000 F60.000000
G1 X-3.170000 F500.000000
G1 X-3.170000 Y-1.585000 Z-9.540000 F60.000000
G1 X13.170000 Y-1.585000 Z-9.540000 F500.000000
G1 Z-9.480000 F60.000000
G1 X-3.170000 F500.000000
G1 X-3.170000 Y-1.585000 Z-9.600000 F60.000000
G1 X13.170000 Y-1.585000 Z-9.600000 F500.000000
G1 Z-9.540000 F60.000000
G1 X-3.170000 F500.000000
G1 X-3.170000 Y-1.585000 Z-9.660000 F60.000000
G1 X13.170000 Y-1.585000 Z-9.660000 F500.000000
G1 Z-9.600000 F60.000000
G1 X-3.170000 F500.000000
G1 X-3.170000 Y-1.585000 Z-9.720000 F60.000000
G1 X13.170000 Y-1.585000 Z-9.720000 F500.000000
G1 Z-9.660000 F60.000000
G1 X-3.170000 F500.000000
G1 X-3.170000 Y-1.585000 Z-9.780000 F60.000000
G1 X13.170000 Y-1.585000 Z-9.780000 F500.000000
G1 Z-9.720000 F60.000000
G1 X-3.170000 F500.000000
G1 X-3.170000 Y-1.585000 Z-9.840000 F60.000000
G1 X13.170000 Y-1.585000 Z-9.840000 F500.000000
G1 Z-9.780000 F60.000000
G1 X-3.170000 F500.000000
G1 X-3.170000 Y-1.585000 Z-9.900000 F60.000000
G1 X13.170000 Y-1.585000 Z-9.900000 F500.000000
G1 Z-9.840000 F60.000000
G1 X-3.170000 F500.000000
G1 X-3.170000 Y-1.585000 Z-9.960000 F60.000000
G1 X13.170000 Y-1.585000 Z-9.960000 F500.000000
G1 Z-9.900000 F60.000000
G1 X-3.170000 F500.000000
G1 X-3.170000 Y-1.585000 Z-10.020000 F60.000000
G1 X13.170000 Y-1.585000 Z-10.020000 F500.000000
G1 Z-9.960000 F60.000000
G1 X-3.170000 F500.000000
G1 X-3.170000 Y-1.585000 Z-10.080000 F60.000000
G1 X13.170000 Y-1.585000 Z-10.080000 F500.000000
G1 Z-10.020000 F60.000000
G1 X-3.170000 F500.000000
G1 X-3.170000 Y-1.585000 Z-10.140000 F60.000000
G1 X13.170000 Y-1.585000 Z-10.140000 F500.000000
G1 Z-10.080000 F60.000000
G1 X-3.170000 F500.000000
G1 X-3.170000 Y-1.585000 Z-10.200000 F60.000000
G1 X13.170000 Y-1.585000 Z-10.200000 F500.000000
G0 Z5.000000
G0 X-3.170000 Y45.585000
G1 Z0.120000 F60.000000
G1 X-3.170000 F500.000000
G1 X-3.170000 Y45.585000 Z0.000000 F60.000000
G1 X13.170000 Y45.585000 Z0.000000 F500.000000
G1 Z0.060000 F60.000000
G1 X-3.170000 F500.000000
G1 X-3.170000 Y45.585000 Z-0.060000 F60.000000
G1 X13.170000 Y45.585000 Z-0.060000 F500.000000
G1 Z0.000000 F60.000000
G1 X-3.170000 F500.000000
G1 X-3.170000 Y45.585000 Z-0.120000 F60.000000
G1 X13.170000 Y45.585000 Z-0.120000 F500.000000
G1 Z-0.060000 F60.000000
G1 X-3.170000 F500.000000
G1 X-3.170000 Y45.585000 Z-0.180000 F60.000000
G1 X13.170000 Y45.585000 Z-0.180000 F500.000000
G1 Z-0.120000 F60.000000
G1 X-3.170000 F500.000000
G1 X-3.170000 Y45.585000 Z-0.240000 F60.000000
G1 X13.170000 Y45.585000 Z-0.240000 F500.000000
G1 Z-0.180000 F60.000000
G1 X-3.170000 F500.000000
G1 X-3.170000 Y45.585000 Z-0.300000 F60.000000
G1 X13.170000 Y45.585000 Z-0.300000 F500.000000
G1 Z-0.240000 F60.000000
G1 X-3.170000 F500.000000
G1 X-3.170000 Y45.585000 Z-0.360000 F60.000000
G1 X13.170000 Y45.585000 Z-0.360000 F500.000000
G1 Z-0.300000 F60.000000
G1 X-3.170000 F500.000000
G1 X-3.170000 Y45.585000 Z-0.420000 F60.000000
G1 X13.170000 Y45.585000 Z-0.420000 F500.000000
G1 Z-0.360000 F60.000000
G1 X-3.170000 F500.000000
G1 X-3.170000 Y45.585000 Z-0.480000 F60.000000
G1 X13.170000 Y45.585000 Z-0.480000 F500.000000
G1 Z-0.420000 F60.000000
G1 X-3.170000 F500.000000
G1 X-3.170000 Y45.585000 Z-0.540000 F60.000000
G1 X13.170000 Y45.585000 Z-0.540000 F500.000000
G1 Z-0.480000 F60.000000
G1 X-3.170000 F500.000000
G1 X-3.170000 Y45.585000 Z-0.600000 F60.000000
G1 X13.170000 Y45.585000 Z-0.600000 F500.000000
G1 Z-0.540000 F60.000000
G1 X-3.170000 F500.000000
G1 X-3.170000 Y45.585000 Z-0.660000 F60.000000
G1 X13.170000 Y45.585000 Z-0.660000 F500.000000
G1 Z-0.600000 F60.000000
G1 X-3.170000 F500.000000
G1 X-3.170000 Y45.585000 Z-0.720000 F60.000000
G1 X13.170000 Y45.585000 Z-0.720000 F500.000000
G1 Z-0.660000 F60.000000
G1 X-3.170000 F500.000000
G1 X-3.170000 Y45.585000 Z-0.780000 F60.000000
G1 X13.170000 Y45.585000 Z-0.780000 F500.000000
G1 Z-0.720000 F60.000000
G1 X-3.170000 F500.000000
G1 X-3.170000 Y45.585000 Z-0.840000 F60.000000
G1 X13.170000 Y45.585000 Z-0.840000 F500.000000
G1 Z-0.780000 F60.000000
G1 X-3.170000 F500.000000
G1 X-3.170000 Y45.585000 Z-0.900000 F60.000000
G1 X13.170000 Y45.585000 Z-0.900000 F500.000000
G1 Z-0.840000 F60.000000
G1 X-3.170000 F500.000000
G1 X-3.170000 Y45.585000 Z-0.960000 F60.000000
G1 X13.170000 Y45.585000 Z-0.960000 F500.000000
G1 Z-0.900000 F60.000000
G1 X-3.170000 F500.000000
G1 X-3.170000 Y45.585000 Z-1.020000 F60.000000
G1 X13.170000 Y45.585000 Z-1.020000 F500.000000
G1 Z-0.960000 F60.000000
G1 X-3.170000 F500.000000
G1 X-3.170000 Y45.585000 Z-1.080000 F60.000000
G1 X13.170000 Y45.585000 Z-1.080000 F500.000000
G1 Z-1.020000 F60.000000
G1 X-3.170000 F500.000000
G1 X-3.170000 Y45.585000 Z-1.140000 F60.000000
G1 X13.170000 Y45.585000 Z-1.140000 F500.000000
G1 Z-1.080000 F60.000000
G1 X-3.170000 F500.000000
G1 X-3.170000 Y45.585000 Z-1.200000 F60.000000
G1 X13.170000 Y45.585000 Z-1.200000 F500.000000
G1 Z-1.140000 F60.000000
G1 X-3.170000 F500.000000
G1 X-3.170000 Y45.585000 Z-1.260000 F60.000000
G1 X13.170000 Y45.585000 Z-1.260000 F500.000000
G1 Z-1.200000 F60.000000
G1 X-3.170000 F500.000000
G1 X-3.170000 Y45.585000 Z-1.320000 F60.000000
G1 X13.170000 Y45.585000 Z-1.320000 F500.000000
G1 Z-1.260000 F60.000000
G1 X-3.170000 F500.000000
G1 X-3.170000 Y45.585000 Z-1.380000 F60.000000
G1 X13.170000 Y45.585000 Z-1.380000 F500.000000
G1 Z-1.320000 F60.000000
G1 X-3.170000 F500.000000
G1 X-3.170000 Y45.585000 Z-1.440000 F60.000000
G1 X13.170000 Y45.585000 Z-1.440000 F500.000000
G1 Z-1.380000 F60.000000
G1 X-3.170000 F500.000000
G1 X-3.170000 Y45.585000 Z-1.500000 F60.000000
G1 X13.170000 Y45.585000 Z-1.500000 F500.000000
G1 Z-1.440000 F60.000000
G1 X-3.170000 F500.000000
G1 X-3.170000 Y45.585000 Z-1.560000 F60.000000
G1 X13.170000 Y45.585000 Z-1.560000 F500.000000
G1 Z-1.500000 F60.000000
G1 X-3.170000 F500.000000
G1 X-3.170000 Y45.585000 Z-1.620000 F60.000000
G1 X13.170000 Y45.585000 Z-1.620000 F500.000000
G1 Z-1.560000 F60.000000
G1 X-3.170000 F500.000000
G1 X-3.170000 Y45.585000 Z-1.680000 F60.000000
G1 X13.170000 Y45.585000 Z-1.680000 F500.000000
G1 Z-1.620000 F60.000000
G1 X-3.170000 F500.000000
G1 X-3.170000 Y45.585000 Z-1.740000 F60.000000
G1 X13.170000 Y45.585000 Z-1.740000 F500.000000
G1 Z-1.680000 F60.000000
G1 X-3.170000 F500.000000
G1 X-3.170000 Y45.585000 Z-1.800000 F60.000000
G1 X13.170000 Y45.585000 Z-1.800000 F500.000000
G1 Z-1.740000 F60.000000
G1 X-3.170000 F500.000000
G1 X-3.170000 Y45.585000 Z-1.860000 F60.000000
G1 X13.170000 Y45.585000 Z-1.860000 F500.000000
G1 Z-1.800000 F60.000000
G1 X-3.170000 F500.000000
G1 X-3.170000 Y45.585000 Z-1.920000 F60.000000
G1 X13.170000 Y45.585000 Z-1.920000 F500.000000
G1 Z-1.860000 F60.000000
G1 X-3.170000 F500.000000
G1 X-3.170000 Y45.585000 Z-1.980000 F60.000000
G1 X13.170000 Y45.585000 Z-1.980000 F500.000000
G1 Z-1.920000 F60.000000
G1 X-3.170000 F500.000000
G1 X-3.170000 Y45.585000 Z-2.040000 F60.000000
G1 X13.170000 Y45.585000 Z-2.040000 F500.000000
G1 Z-1.980000 F60.000000
G1 X-3.170000 F500.000000
G1 X-3.170000 Y45.585000 Z-2.100000 F60.000000
G1 X13.170000 Y45.585000 Z-2.100000 F500.000000
G1 Z-2.040000 F60.000000
G1 X-3.170000 F500.000000
G1 X-3.170000 Y45.585000 Z-2.160000 F60.000000
G1 X13.170000 Y45.585000 Z-2.160000 F500.000000
G1 Z-2.100000 F60.000000
G1 X-3.170000 F500.000000
G1 X-3.170000 Y45.585000 Z-2.220000 F60.000000
G1 X13.170000 Y45.585000 Z-2.220000 F500.000000
G1 Z-2.160000 F60.000000
G1 X-3.170000 F500.000000
G1 X-3.170000 Y45.585000 Z-2.280000 F60.000000
G1 X13.170000 Y45.585000 Z-2.280000 F500.000000
G1 Z-2.220000 F60.000000
G1 X-3.170000 F500.000000
G1 X-3.170000 Y45.585000 Z-2.340000 F60.000000
G1 X13.170000 Y45.585000 Z-2.340000 F500.000000
G1 Z-2.280000 F60.000000
G1 X-3.170000 F500.000000
G1 X-3.170000 Y45.585000 Z-2.400000 F60.000000
G1 X13.170000 Y45.585000 Z-2.400000 F500.000000
G1 Z-2.340000 F60.000000
G1 X-3.170000 F500.000000
G1 X-3.170000 Y45.585000 Z-2.460000 F60.000000
G1 X13.170000 Y45.585000 Z-2.460000 F500.000000
G1 Z-2.400000 F60.000000
G1 X-3.170000 F500.000000
G1 X-3.170000 Y45.585000 Z-2.520000 F60.000000
G1 X13.170000 Y45.585000 Z-2.520000 F500.000000
G1 Z-2.460000 F60.000000
G1 X-3.170000 F500.000000
G1 X-3.170000 Y45.585000 Z-2.580000 F60.000000
G1 X13.170000 Y45.585000 Z-2.580000 F500.000000
G1 Z-2.520000 F60.000000
G1 X-3.170000 F500.000000
G1 X-3.170000 Y45.585000 Z-2.640000 F60.000000
G1 X13.170000 Y45.585000 Z-2.640000 F500.000000
G1 Z-2.580000 F60.000000
G1 X-3.170000 F500.000000
G1 X-3.170000 Y45.585000 Z-2.700000 F60.000000
G1 X13.170000 Y45.585000 Z-2.700000 F500.000000
G1 Z-2.640000 F60.000000
G1 X-3.170000 F500.000000
G1 X-3.170000 Y45.585000 Z-2.760000 F60.000000
G1 X13.170000 Y45.585000 Z-2.760000 F500.000000
G1 Z-2.700000 F60.000000
G1 X-3.170000 F500.000000
G1 X-3.170000 Y45.585000 Z-2.820000 F60.000000
G1 X13.170000 Y45.585000 Z-2.820000 F500.000000
G1 Z-2.760000 F60.000000
G1 X-3.170000 F500.000000
G1 X-3.170000 Y45.585000 Z-2.880000 F60.000000
G1 X13.170000 Y45.585000 Z-2.880000 F500.000000
G1 Z-2.820000 F60.000000
G1 X-3.170000 F500.000000
G1 X-3.170000 Y45.585000 Z-2.940000 F60.000000
G1 X13.170000 Y45.585000 Z-2.940000 F500.000000
G1 Z-2.880000 F60.000000
G1 X-3.170000 F500.000000
G1 X-3.170000 Y45.585000 Z-3.000000 F60.000000
G1 X13.170000 Y45.585000 Z-3.000000 F500.000000
G1 Z-2.940000 F60.000000
G1 X-3.170000 F500.000000
G1 X-3.170000 Y45.585000 Z-3.060000 F60.000000
G1 X13.170000 Y45.585000 Z-3.060000 F500.000000
G1 Z-3.000000 F60.000000
G1 X-3.170000 F500.000000
G1 X-3.170000 Y45.585000 Z-3.120000 F60.000000
G1 X13.170000 Y45.585000 Z-3.120000 F500.000000
G1 Z-3.060000 F60.000000
G1 X-3.170000 F500.000000
G1 X-3.170000 Y45.585000 Z-3.180000 F60.000000
G1 X13.170000 Y45.585000 Z-3.180000 F500.000000
G1 Z-3.120000 F60.000000
G1 X-3.170000 F500.000000
G1 X-3.170000 Y45.585000 Z-3.240000 F60.000000
G1 X13.170000 Y45.585000 Z-3.240000 F500.000000
G1 Z-3.180000 F60.000000
G1 X-3.170000 F500.000000
G1 X-3.170000 Y45.585000 Z-3.300000 F60.000000
G1 X13.170000 Y45.585000 Z-3.300000 F500.000000
G1 Z-3.240000 F60.000000
G1 X-3.170000 F500.000000
G1 X-3.170000 Y45.585000 Z-3.360000 F60.000000
G1 X13.170000 Y45.585000 Z-3.360000 F500.000000
G1 Z-3.300000 F60.000000
G1 X-3.170000 F500.000000
G1 X-3.170000 Y45.585000 Z-3.420000 F60.000000
G1 X13.170000 Y45.585000 Z-3.420000 F500.000000
G1 Z-3.360000 F60.000000
G1 X-3.170000 F500.000000
G1 X-3.170000 Y45.585000 Z-3.480000 F60.000000
G1 X13.170000 Y45.585000 Z-3.480000 F500.000000
G1 Z-3.420000 F60.000000
G1 X-3.170000 F500.000000
G1 X-3.170000 Y45.585000 Z-3.540000 F60.000000
G1 X13.170000 Y45.585000 Z-3.540000 F500.000000
G1 Z-3.480000 F60.000000
G1 X-3.170000 F500.000000
G1 X-3.170000 Y45.585000 Z-3.600000 F60.000000
G1 X13.170000 Y45.585000 Z-3.600000 F500.000000
G1 Z-3.540000 F60.000000
G1 X-3.170000 F500.000000
G1 X-3.170000 Y45.585000 Z-3.660000 F60.000000
G1 X13.170000 Y45.585000 Z-3.660000 F500.000000
G1 Z-3.600000 F60.000000
G1 X-3.170000 F500.000000
G1 X-3.170000 Y45.585000 Z-3.720000 F60.000000
G1 X13.170000 Y45.585000 Z-3.720000 F500.000000
G1 Z-3.660000 F60.000000
G1 X-3.170000 F500.000000
G1 X-3.170000 Y45.585000 Z-3.780000 F60.000000
G1 X13.170000 Y45.585000 Z-3.780000 F500.000000
G1 Z-3.720000 F60.000000
G1 X-3.170000 F500.000000
G1 X-3.170000 Y45.585000 Z-3.840000 F60.000000
G1 X13.170000 Y45.585000 Z-3.840000 F500.000000
G1 Z-3.780000 F60.000000
G1 X-3.170000 F500.000000
G1 X-3.170000 Y45.585000 Z-3.900000 F60.000000
G1 X13.170000 Y45.585000 Z-3.900000 F500.000000
G1 Z-3.840000 F60.000000
G1 X-3.170000 F500.000000
G1 X-3.170000 Y45.585000 Z-3.960000 F60.000000
G1 X13.170000 Y45.585000 Z-3.960000 F500.000000
G1 Z-3.900000 F60.000000
G1 X-3.170000 F500.000000
G1 X-3.170000 Y45.585000 Z-4.020000 F60.000000
G1 X13.170000 Y45.585000 Z-4.020000 F500.000000
G1 Z-3.960000 F60.000000
G1 X-3.170000 F500.000000
G1 X-3.170000 Y45.585000 Z-4.080000 F60.000000
G1 X13.170000 Y45.585000 Z-4.080000 F500.000000
G1 Z-4.020000 F60.000000
G1 X-3.170000 F500.000000
G1 X-3.170000 Y45.585000 Z-4.140000 F60.000000
G1 X13.170000 Y45.585000 Z-4.140000 F500.000000
G1 Z-4.080000 F60.000000
G1 X-3.170000 F500.000000
G1 X-3.170000 Y45.585000 Z-4.200000 F60.000000
G1 X13.170000 Y45.585000 Z-4.200000 F500.000000
G1 Z-4.140000 F60.000000
G1 X-3.170000 F500.000000
G1 X-3.170000 Y45.585000 Z-4.260000 F60.000000
G1 X13.170000 Y45.585000 Z-4.260000 F500.000000
G1 Z-4.200000 F60.000000
G1 X-3.170000 F500.000000
G1 X-3.170000 Y45.585000 Z-4.320000 F60.000000
G1 X13.170000 Y45.585000 Z-4.320000 F500.000000
G1 Z-4.260000 F60.000000
G1 X-3.170000 F500.000000
G1 X-3.170000 Y45.585000 Z-4.380000 F60.000000
G1 X13.170000 Y45.585000 Z-4.380000 F500.000000
G1 Z-4.320000 F60.000000
G1 X-3.170000 F500.000000
G1 X-3.170000 Y45.585000 Z-4.440000 F60.000000
G1 X13.170000 Y45.585000 Z-4.440000 F500.000000
G1 Z-4.380000 F60.000000
G1 X-3.170000 F500.000000
G1 X-3.170000 Y45.585000 Z-4.500000 F60.000000
G1 X13.170000 Y45.585000 Z-4.500000 F500.000000
G1 Z-4.440000 F60.000000
G1 X-3.170000 F500.000000
G1 X-3.170000 Y45.585000 Z-4.560000 F60.000000
G1 X13.170000 Y45.585000 Z-4.560000 F500.000000
G1 Z-4.500000 F60.000000
G1 X-3.170000 F500.000000
G1 X-3.170000 Y45.585000 Z-4.620000 F60.000000
G1 X13.170000 Y45.585000 Z-4.620000 F500.000000
G1 Z-4.560000 F60.000000
G1 X-3.170000 F500.000000
G1 X-3.170000 Y45.585000 Z-4.680000 F60.000000
G1 X13.170000 Y45.585000 Z-4.680000 F500.000000
G1 Z-4.620000 F60.000000
G1 X-3.170000 F500.000000
G1 X-3.170000 Y45.585000 Z-4.740000 F60.000000
G1 X13.170000 Y45.585000 Z-4.740000 F500.000000
G1 Z-4.680000 F60.000000
G1 X-3.170000 F500.000000
G1 X-3.170000 Y45.585000 Z-4.800000 F60.000000
G1 X13.170000 Y45.585000 Z-4.800000 F500.000000
G1 Z-4.740000 F60.000000
G1 X-3.170000 F500.000000
G1 X-3.170000 Y45.585000 Z-4.860000 F60.000000
G1 X13.170000 Y45.585000 Z-4.860000 F500.000000
G1 Z-4.800000 F60.000000
G1 X-3.170000 F500.000000
G1 X-3.170000 Y45.585000 Z-4.920000 F60.000000
G1 X13.170000 Y45.585000 Z-4.920000 F500.000000
G1 Z-4.860000 F60.000000
G1 X-3.170000 F500.000000
G1 X-3.170000 Y45.585000 Z-4.980000 F60.000000
G1 X13.170000 Y45.585000 Z-4.980000 F500.000000
G1 Z-4.920000 F60.000000
G1 X-3.170000 F500.000000
G1 X-3.170000 Y45.585000 Z-5.040000 F60.000000
G1 X13.170000 Y45.585000 Z-5.040000 F500.000000
G1 Z-4.980000 F60.000000
G1 X-3.170000 F500.000000
G1 X-3.170000 Y45.585000 Z-5.100000 F60.000000
G1 X13.170000 Y45.585000 Z-5.100000 F500.000000
G1 Z-5.040000 F60.000000
G1 X-3.170000 F500.000000
G1 X-3.170000 Y45.585000 Z-5.160000 F60.000000
G1 X13.170000 Y45.585000 Z-5.160000 F500.000000
G1 Z-5.100000 F60.000000
G1 X-3.170000 F500.000000
G1 X-3.170000 Y45.585000 Z-5.220000 F60.000000
G1 X13.170000 Y45.585000 Z-5.220000 F500.000000
G1 Z-5.160000 F60.000000
G1 X-3.170000 F500.000000
G1 X-3.170000 Y45.585000 Z-5.280000 F60.000000
G1 X13.170000 Y45.585000 Z-5.280000 F500.000000
G1 Z-5.220000 F60.000000
G1 X-3.170000 F500.000000
G1 X-3.170000 Y45.585000 Z-5.340000 F60.000000
G1 X13.170000 Y45.585000 Z-5.340000 F500.000000
G1 Z-5.280000 F60.000000
G1 X-3.170000 F500.000000
G1 X-3.170000 Y45.585000 Z-5.400000 F60.000000
G1 X13.170000 Y45.585000 Z-5.400000 F500.000000
G1 Z-5.340000 F60.000000
G1 X-3.170000 F500.000000
G1 X-3.170000 Y45.585000 Z-5.460000 F60.000000
G1 X13.170000 Y45.585000 Z-5.460000 F500.000000
G1 Z-5.400000 F60.000000
G1 X-3.170000 F500.000000
G1 X-3.170000 Y45.585000 Z-5.520000 F60.000000
G1 X13.170000 Y45.585000 Z-5.520000 F500.000000
G1 Z-5.460000 F60.000000
G1 X-3.170000 F500.000000
G1 X-3.170000 Y45.585000 Z-5.580000 F60.000000
G1 X13.170000 Y45.585000 Z-5.580000 F500.000000
G1 Z-5.520000 F60.000000
G1 X-3.170000 F500.000000
G1 X-3.170000 Y45.585000 Z-5.640000 F60.000000
G1 X13.170000 Y45.585000 Z-5.640000 F500.000000
G1 Z-5.580000 F60.000000
G1 X-3.170000 F500.000000
G1 X-3.170000 Y45.585000 Z-5.700000 F60.000000
G1 X13.170000 Y45.585000 Z-5.700000 F500.000000
G1 Z-5.640000 F60.000000
G1 X-3.170000 F500.000000
G1 X-3.170000 Y45.585000 Z-5.760000 F60.000000
G1 X13.170000 Y45.585000 Z-5.760000 F500.000000
G1 Z-5.700000 F60.000000
G1 X-3.170000 F500.000000
G1 X-3.170000 Y45.585000 Z-5.820000 F60.000000
G1 X13.170000 Y45.585000 Z-5.820000 F500.000000
G1 Z-5.760000 F60.000000
G1 X-3.170000 F500.000000
G1 X-3.170000 Y45.585000 Z-5.880000 F60.000000
G1 X13.170000 Y45.585000 Z-5.880000 F500.000000
G1 Z-5.820000 F60.000000
G1 X-3.170000 F500.000000
G1 X-3.170000 Y45.585000 Z-5.940000 F60.000000
G1 X13.170000 Y45.585000 Z-5.940000 F500.000000
G1 Z-5.880000 F60.000000
G1 X-3.170000 F500.000000
G1 X-3.170000 Y45.585000 Z-6.000000 F60.000000
G1 X13.170000 Y45.585000 Z-6.000000 F500.000000
G1 Z-5.940000 F60.000000
G1 X-3.170000 F500.000000
G1 X-3.170000 Y45.585000 Z-6.060000 F60.000000
G1 X13.170000 Y45.585000 Z-6.060000 F500.000000
G1 Z-6.000000 F60.000000
G1 X-3.170000 F500.000000
G1 X-3.170000 Y45.585000 Z-6.120000 F60.000000
G1 X13.170000 Y45.585000 Z-6.120000 F500.000000
G1 Z-6.060000 F60.000000
G1 X-3.170000 F500.000000
G1 X-3.170000 Y45.585000 Z-6.180000 F60.000000
G1 X13.170000 Y45.585000 Z-6.180000 F500.000000
G1 Z-6.120000 F60.000000
G1 X-3.170000 F500.000000
G1 X-3.170000 Y45.585000 Z-6.240000 F60.000000
G1 X13.170000 Y45.585000 Z-6.240000 F500.000000
G1 Z-6.180000 F60.000000
G1 X-3.170000 F500.000000
G1 X-3.170000 Y45.585000 Z-6.300000 F60.000000
G1 X13.170000 Y45.585000 Z-6.300000 F500.000000
G1 Z-6.240000 F60.000000
G1 X-3.170000 F500.000000
G1 X-3.170000 Y45.585000 Z-6.360000 F60.000000
G1 X13.170000 Y45.585000 Z-6.360000 F500.000000
G1 Z-6.300000 F60.000000
G1 X-3.170000 F500.000000
G1 X-3.170000 Y45.585000 Z-6.420000 F60.000000
G1 X13.170000 Y45.585000 Z-6.420000 F500.000000
G1 Z-6.360000 F60.000000
G1 X-3.170000 F500.000000
G1 X-3.170000 Y45.585000 Z-6.480000 F60.000000
G1 X13.170000 Y45.585000 Z-6.480000 F500.000000
G1 Z-6.420000 F60.000000
G1 X-3.170000 F500.000000
G1 X-3.170000 Y45.585000 Z-6.540000 F60.000000
G1 X13.170000 Y45.585000 Z-6.540000 F500.000000
G1 Z-6.480000 F60.000000
G1 X-3.170000 F500.000000
G1 X-3.170000 Y45.585000 Z-6.600000 F60.000000
G1 X13.170000 Y45.585000 Z-6.600000 F500.000000
G1 Z-6.540000 F60.000000
G1 X-3.170000 F500.000000
G1 X-3.170000 Y45.585000 Z-6.660000 F60.000000
G1 X13.170000 Y45.585000 Z-6.660000 F500.000000
G1 Z-6.600000 F60.000000
G1 X-3.170000 F500.000000
G1 X-3.170000 Y45.585000 Z-6.720000 F60.000000
G1 X13.170000 Y45.585000 Z-6.720000 F500.000000
G1 Z-6.660000 F60.000000
G1 X-3.170000 F500.000000
G1 X-3.170000 Y45.585000 Z-6.780000 F60.000000
G1 X13.170000 Y45.585000 Z-6.780000 F500.000000
G1 Z-6.720000 F60.000000
G1 X-3.170000 F500.000000
G1 X-3.170000 Y45.585000 Z-6.840000 F60.000000
G1 X13.170000 Y45.585000 Z-6.840000 F500.000000
G1 Z-6.780000 F60.000000
G1 X-3.170000 F500.000000
G1 X-3.170000 Y45.585000 Z-6.900000 F60.000000
G1 X13.170000 Y45.585000 Z-6.900000 F500.000000
G1 Z-6.840000 F60.000000
G1 X-3.170000 F500.000000
G1 X-3.170000 Y45.585000 Z-6.960000 F60.000000
G1 X13.170000 Y45.585000 Z-6.960000 F500.000000
G1 Z-6.900000 F60.000000
G1 X-3.170000 F500.000000
G1 X-3.170000 Y45.585000 Z-7.020000 F60.000000
G1 X13.170000 Y45.585000 Z-7.020000 F500.000000
G1 Z-6.960000 F60.000000
G1 X-3.170000 F500.000000
G1 X-3.170000 Y45.585000 Z-7.080000 F60.000000
G1 X13.170000 Y45.585000 Z-7.080000 F500.000000
G1 Z-7.020000 F60.000000
G1 X-3.170000 F500.000000
G1 X-3.170000 Y45.585000 Z-7.140000 F60.000000
G1 X13.170000 Y45.585000 Z-7.140000 F500.000000
G1 Z-7.080000 F60.000000
G1 X-3.170000 F500.000000
G1 X-3.170000 Y45.585000 Z-7.200000 F60.000000
G1 X13.170000 Y45.585000 Z-7.200000 F500.000000
G1 Z-7.140000 F60.000000
G1 X-3.170000 F500.000000
G1 X-3.170000 Y45.585000 Z-7.260000 F60.000000
G1 X13.170000 Y45.585000 Z-7.260000 F500.000000
G1 Z-7.200000 F60.000000
G1 X-3.170000 F500.000000
G1 X-3.170000 Y45.585000 Z-7.320000 F60.000000
G1 X13.170000 Y45.585000 Z-7.320000 F500.000000
G1 Z-7.260000 F60.000000
G1 X-3.170000 F500.000000
G1 X-3.170000 Y45.585000 Z-7.380000 F60.000000
G1 X13.170000 Y45.585000 Z-7.380000 F500.000000
G1 Z-7.320000 F60.000000
G1 X-3.170000 F500.000000
G1 X-3.170000 Y45.585000 Z-7.440000 F60.000000
G1 X13.170000 Y45.585000 Z-7.440000 F500.000000
G1 Z-7.380000 F60.000000
G1 X-3.170000 F500.000000
G1 X-3.170000 Y45.585000 Z-7.500000 F60.000000
G1 X13.170000 Y45.585000 Z-7.500000 F500.000000
G1 Z-7.440000 F60.000000
G1 X-3.170000 F500.000000
G1 X-3.170000 Y45.585000 Z-7.560000 F60.000000
G1 X13.170000 Y45.585000 Z-7.560000 F500.000000
G1 Z-7.500000 F60.000000
G1 X-3.170000 F500.000000
G1 X-3.170000 Y45.585000 Z-7.620000 F60.000000
G1 X13.170000 Y45.585000 Z-7.620000 F500.000000
G1 Z-7.560000 F60.000000
G1 X-3.170000 F500.000000
G1 X-3.170000 Y45.585000 Z-7.680000 F60.000000
G1 X13.170000 Y45.585000 Z-7.680000 F500.000000
G1 Z-7.620000 F60.000000
G1 X-3.170000 F500.000000
G1 X-3.170000 Y45.585000 Z-7.740000 F60.000000
G1 X13.170000 Y45.585000 Z-7.740000 F500.000000
G1 Z-7.680000 F60.000000
G1 X-3.170000 F500.000000
G1 X-3.170000 Y45.585000 Z-7.800000 F60.000000
G1 X13.170000 Y45.585000 Z-7.800000 F500.000000
G1 Z-7.740000 F60.000000
G1 X-3.170000 F500.000000
G1 X-3.170000 Y45.585000 Z-7.860000 F60.000000
G1 X13.170000 Y45.585000 Z-7.860000 F500.000000
G1 Z-7.800000 F60.000000
G1 X-3.170000 F500.000000
G1 X-3.170000 Y45.585000 Z-7.920000 F60.000000
G1 X13.170000 Y45.585000 Z-7.920000 F500.000000
G1 Z-7.860000 F60.000000
G1 X-3.170000 F500.000000
G1 X-3.170000 Y45.585000 Z-7.980000 F60.000000
G1 X13.170000 Y45.585000 Z-7.980000 F500.000000
G1 Z-7.920000 F60.000000
G1 X-3.170000 F500.000000
G1 X-3.170000 Y45.585000 Z-8.040000 F60.000000
G1 X13.170000 Y45.585000 Z-8.040000 F500.000000
G1 Z-7.980000 F60.000000
G1 X-3.170000 F500.000000
G1 X-3.170000 Y45.585000 Z-8.100000 F60.000000
G1 X13.170000 Y45.585000 Z-8.100000 F500.000000
G1 Z-8.040000 F60.000000
G1 X-3.170000 F500.000000
G1 X-3.170000 Y45.585000 Z-8.160000 F60.000000
G1 X13.170000 Y45.585000 Z-8.160000 F500.000000
G1 Z-8.100000 F60.000000
G1 X-3.170000 F500.000000
G1 X-3.170000 Y45.585000 Z-8.220000 F60.000000
G1 X13.170000 Y45.585000 Z-8.220000 F500.000000
G1 Z-8.160000 F60.000000
G1 X-3.170000 F500.000000
G1 X-3.170000 Y45.585000 Z-8.280000 F60.000000
G1 X13.170000 Y45.585000 Z-8.280000 F500.000000
G1 Z-8.220000 F60.000000
G1 X-3.170000 F500.000000
G1 X-3.170000 Y45.585000 Z-8.340000 F60.000000
G1 X13.170000 Y45.585000 Z-8.340000 F500.000000
G1 Z-8.280000 F60.000000
G1 X-3.170000 F500.000000
G1 X-3.170000 Y45.585000 Z-8.400000 F60.000000
G1 X13.170000 Y45.585000 Z-8.400000 F500.000000
G1 Z-8.340000 F60.000000
G1 X-3.170000 F500.000000
G1 X-3.170000 Y45.585000 Z-8.460000 F60.000000
G1 X13.170000 Y45.585000 Z-8.460000 F500.000000
G1 Z-8.400000 F60.000000
G1 X-3.170000 F500.000000
G1 X-3.170000 Y45.585000 Z-8.520000 F60.000000
G1 X13.170000 Y45.585000 Z-8.520000 F500.000000
G1 Z-8.460000 F60.000000
G1 X-3.170000 F500.000000
G1 X-3.170000 Y45.585000 Z-8.580000 F60.000000
G1 X13.170000 Y45.585000 Z-8.580000 F500.000000
G1 Z-8.520000 F60.000000
G1 X-3.170000 F500.000000
G1 X-3.170000 Y45.585000 Z-8.640000 F60.000000
G1 X13.170000 Y45.585000 Z-8.640000 F500.000000
G1 Z-8.580000 F60.000000
G1 X-3.170000 F500.000000
G1 X-3.170000 Y45.585000 Z-8.700000 F60.000000
G1 X13.170000 Y45.585000 Z-8.700000 F500.000000
G1 Z-8.640000 F60.000000
G1 X-3.170000 F500.000000
G1 X-3.170000 Y45.585000 Z-8.760000 F60.000000
G1 X13.170000 Y45.585000 Z-8.760000 F500.000000
G1 Z-8.700000 F60.000000
G1 X-3.170000 F500.000000
G1 X-3.170000 Y45.585000 Z-8.820000 F60.000000
G1 X13.170000 Y45.585000 Z-8.820000 F500.000000
G1 Z-8.760000 F60.000000
G1 X-3.170000 F500.000000
G1 X-3.170000 Y45.585000 Z-8.880000 F60.000000
G1 X13.170000 Y45.585000 Z-8.880000 F500.000000
G1 Z-8.820000 F60.000000
G1 X-3.170000 F500.000000
G1 X-3.170000 Y45.585000 Z-8.940000 F60.000000
G1 X13.170000 Y45.585000 Z-8.940000 F500.000000
G1 Z-8.880000 F60.000000
G1 X-3.170000 F500.000000
G1 X-3.170000 Y45.585000 Z-9.000000 F60.000000
G1 X13.170000 Y45.585000 Z-9.000000 F500.000000
G1 Z-8.940000 F60.000000
G1 X-3.170000 F500.000000
G1 X-3.170000 Y45.585000 Z-9.060000 F60.000000
G1 X13.170000 Y45.585000 Z-9.060000 F500.000000
G1 Z-9.000000 F60.000000
G1 X-3.170000 F500.000000
G1 X-3.170000 Y45.585000 Z-9.120000 F60.000000
G1 X13.170000 Y45.585000 Z-9.120000 F500.000000
G1 Z-9.060000 F60.000000
G1 X-3.170000 F500.000000
G1 X-3.170000 Y45.585000 Z-9.180000 F60.000000
G1 X13.170000 Y45.585000 Z-9.180000 F500.000000
G1 Z-9.120000 F60.000000
G1 X-3.170000 F500.000000
G1 X-3.170000 Y45.585000 Z-9.240000 F60.000000
G1 X13.170000 Y45.585000 Z-9.240000 F500.000000
G1 Z-9.180000 F60.000000
G1 X-3.170000 F500.000000
G1 X-3.170000 Y45.585000 Z-9.300000 F60.000000
G1 X13.170000 Y45.585000 Z-9.300000 F500.000000
G1 Z-9.240000 F60.000000
G1 X-3.170000 F500.000000
G1 X-3.170000 Y45.585000 Z-9.360000 F60.000000
G1 X13.170000 Y45.585000 Z-9.360000 F500.000000
G1 Z-9.300000 F60.000000
G1 X-3.170000 F500.000000
G1 X-3.170000 Y45.585000 Z-9.420000 F60.000000
G1 X13.170000 Y45.585000 Z-9.420000 F500.000000
G1 Z-9.360000 F60.000000
G1 X-3.170000 F500.000000
G1 X-3.170000 Y45.585000 Z-9.480000 F60.000000
G1 X13.170000 Y45.585000 Z-9.480000 F500.000000
G1 Z-9.420000 F60.000000
G1 X-3.170000 F500.000000
G1 X-3.170000 Y45.585000 Z-9.540000 F60.000000
G1 X13.170000 Y45.585000 Z-9.540000 F500.000000
G1 Z-9.480000 F60.000000
G1 X-3.170000 F500.000000
G1 X-3.170000 Y45.585000 Z-9.600000 F60.000000
G1 X13.170000 Y45.585000 Z-9.600000 F500.000000
G1 Z-9.540000 F60.000000
G1 X-3.170000 F500.000000
G1 X-3.170000 Y45.585000 Z-9.660000 F60.000000
G1 X13.170000 Y45.585000 Z-9.660000 F500.000000
G1 Z-9.600000 F60.000000
G1 X-3.170000 F500.000000
G1 X-3.170000 Y45.585000 Z-9.720000 F60.000000
G1 X13.170000 Y45.585000 Z-9.720000 F500.000000
G1 Z-9.660000 F60.000000
G1 X-3.170000 F500.000000
G1 X-3.170000 Y45.585000 Z-9.780000 F60.000000
G1 X13.170000 Y45.585000 Z-9.780000 F500.000000
G1 Z-9.720000 F60.000000
G1 X-3.170000 F500.000000
G1 X-3.170000 Y45.585000 Z-9.840000 F60.000000
G1 X13.170000 Y45.585000 Z-9.840000 F500.000000
G1 Z-9.780000 F60.000000
G1 X-3.170000 F500.000000
G1 X-3.170000 Y45.585000 Z-9.900000 F60.000000
G1 X13.170000 Y45.585000 Z-9.900000 F500.000000
G1 Z-9.840000 F60.000000
G1 X-3.170000 F500.000000
G1 X-3.170000 Y45.585000 Z-9.960000 F60.000000
G1 X13.170000 Y45.585000 Z-9.960000 F500.000000
G1 Z-9.900000 F60.000000
G1 X-3.170000 F500.000000
G1 X-3.170000 Y45.585000 Z-10.020000 F60.000000
G1 X13.170000 Y45.585000 Z-10.020000 F500.000000
G1 Z-9.960000 F60.000000
G1 X-3.170000 F500.000000
G1 X-3.170000 Y45.585000 Z-10.080000 F60.000000
G1 X13.170000 Y45.585000 Z-10.080000 F500.000000
G1 Z-10.020000 F60.000000
G1 X-3.170000 F500.000000
G1 X-3.170000 Y45.585000 Z-10.140000 F60.000000
G1 X13.170000 Y45.585000 Z-10.140000 F500.000000
G1 Z-10.080000 F60.000000
G1 X-3.170000 F500.000000
G1 X-3.170000 Y45.585000 Z-10.200000 F60.000000
G1 X13.170000 Y45.585000 Z-10.200000 F500.000000
G0 Z5.000000
(Begin postamble)
M5
G17 G90
M2
